X:97
T:Sweet Reunion
C:Daniel Lapp
D:Celtic Colours of Cape Breton 2002
Z:Robin Beech robin.beech@mcgill.ca
R:reel
M:4/4
L:1/8
K:Emin
| B3 c BAGA | BEED EFGE | FB,B,A, B,^CDE | F2 AF BAGA |
B3 c BAGA | BEED EFGE | (3 FED FG A3 B | dedc BAGA :|
|: B2 eB fBe (3d/e/f/ | gfed edBA | BFFE F3 G | FB,B,^C DEFA |
B2 eB fBe (3d/e/f/ | gfed edBA | B3c BAGA | BG G F G3A :|
